!!!COM: Balsamino, Simone
!!!CDT:
!!!PTL: Novellette a sei voci
!!!PPP: Venice
!!!PPR: Amadino
!!!PDT: 1594
!!!PUB-format:
!!!RISM: B 785
!!!OTL: Tu taci: tu sei vinto. Ora confessa
!!!AGN: Madrigal
!!!SCT: Tam2031133a
!!!SCA: Tam2031133a
!!!original-voices: 6
!!!extant-voices: 6
!!!complete: Y
!!!final: F
**kern	**text	**kern	**text	**kern	**text	**kern	**text	**kern	**text	**kern	**text
*part6	*part6	*part5	*part5	*part4	*part4	*part3	*part3	*part2	*part2	*part1	*part1
*staff6	*staff6	*staff5	*staff5	*staff4	*staff4	*staff3	*staff3	*staff2	*staff2	*staff1	*staff1
*I"Basso	*	*I"Quinto	*	*I"Tenore	*	*I"Alto	*	*I"Sesto	*	*I"Canto	*
*I'B	*	*I'V	*	*I'T	*	*I'A	*	*I'VI	*	*I'C	*
*oclefF4	*	*oclefC4	*	*oclefC4	*	*oclefC3	*	*oclefC1	*	*oclefC1	*
*clefF4	*	*clefGv2	*	*clefGv2	*	*clefG2	*	*clefG2	*	*clefG2	*
*k[b-]	*	*k[b-]	*	*k[b-]	*	*k[b-]	*	*k[b-]	*	*k[b-]	*
*d:	*	*d:	*	*d:	*	*d:	*	*d:	*	*d:	*
*omet(C)	*	*omet(C)	*	*omet(C)	*	*omet(C)	*	*omet(C)	*	*omet(C)	*
*M4/2	*	*M4/2	*	*M4/2	*	*M4/2	*	*M4/2	*	*M4/2	*
=1	=1	=1	=1	=1	=1	=1	=1	=1	=1	=1	=1
!!LO:TX:a:t=[Sedicesima parte]
0r	.	1F	Tu	1c	Tu	0r	.	1f	Tu	1a	Tu
.	.	[1B-y	ta-	[1d	ta-	.	.	[1f	ta-	[1b-y	ta-
=2	=2	=2	=2	=2	=2	=2	=2	=2	=2	=2	=2
1r	.	1B-y]	.	1d]	.	1r	.	1f]	.	1b-y]	.
2r	.	2F	-ci:	2c	-ci:	2r	.	2f	-ci:	2a	-ci:
4BB-y	Tu	4F	tu	4d	tu	4d	Tu	4f	tu	4b-y	tu
4F	sei	4F	sei	4c	sei	4f	sei	4a	sei	4cc	sei
=3	=3	=3	=3	=3	=3	=3	=3	=3	=3	=3	=3
0BB-y	vin-	0F	vin-	0B-y	vin-	0f	vin-	0b-y	vin-	0dd	vin-
=4	=4	=4	=4	=4	=4	=4	=4	=4	=4	=4	=4
1FF	-to.	1F	-to.	1c	-to.	1f	-to.	1a	-to.	1cc	-to.
4r	.	4r	.	4r	.	4r	.	4r	.	4r	.
4.C	O-	4.G	O-	4.c	O-	4.e	O-	4.g	O-	4.cc	O-
8C	-ra	8G	-ra	8c	-ra	8e	-ra	8g	-ra	8cc	-ra
4FF	con-	4A	con-	4c	con-	4c	con-	4f	con-	4a	con-
=5	=5	=5	=5	=5	=5	=5	=5	=5	=5	=5	=5
4.BB-y	-fes-	4.F	-fes-	4.B-y	-fes-	4.d	-fes-	4.f	-fes-	4.b-y	-fes-
8BB-y	-sa,	8F	-sa,	8B-y	-sa,	8d	-sa,	8f	-sa,	8b-y	-sa,
4FF	con-	4F	con-	4c	con-	4c	con-	4f	con-	4a	con-
2C	-fes-	2E	-fes-	2c	-fes-	2e	-fes-	2g	-fes-	2cc	-fes-
4FF	-sa	4F	-sa	4c	-sa	4c	-sa	4f	-sa	4a	-sa
2BB-y	Que-	2F	Que-	2B-y	Que-	2d	Que-	2f	Que-	2b-y	Que-
=6	=6	=6	=6	=6	=6	=6	=6	=6	=6	=6	=6
4BB-y	-sta	4D	-sta	4B-y	-sta	4d	-sta	4f	-sta	4b-y	-sta
4.E-X	per-	4.G	per-	4.B-y	per-	4.e-X	per-	4.g	per-	4.b-y	per-
8E-i	-di-	8G	-di-	8B-y	-di-	8e-i	-di-	8g	-di-	8b-y	-di-
4E-i	-ta	4G	-ta	4B-y	-ta	4e-i	-ta	4g	-ta	4b-y	-ta
1BB-y	tua.	2.D	tua,	1B-y	tua.	2.d	tua,	1f	tua.	2.b-y	tua,
.	.	4D	che	.	.	4d	che	.	.	4f	che
=7	=7	=7	=7	=7	=7	=7	=7	=7	=7	=7	=7
0r	.	4B-y	sia	0r	.	4d	sia	0r	.	4f	sia
.	.	4B-y	ca-	.	.	4d	ca-	.	.	4f	ca-
.	.	2B-y	-gio-	.	.	2d	-gio-	.	.	2f	-gio-
.	.	2B-y	-ne	.	.	2d	-ne	.	.	2f	-ne
.	.	4B-y	Di	.	.	4d	Di	.	.	4f	Di
.	.	4G	vit-	.	.	4d	vit-	.	.	4g	vit-
=8	=8	=8	=8	=8	=8	=8	=8	=8	=8	=8	=8
0r	.	4d	-to-	0r	.	4f	-to-	0r	.	4a	-to-
.	.	8d	-ria	.	.	8d	-ria	.	.	8f	-ria
.	.	8G	mag-	.	.	8g	mag-	.	.	8g	mag-
.	.	1d	-gio-	.	.	1f#X	-gio-	.	.	1a	-gio-
.	.	4G	-re.	.	.	4g	-re.	.	.	4g	-re.
.	.	4G	An-	.	.	4d	An-	.	.	4g	An-
=9	=9	=9	=9	=9	=9	=9	=9	=9	=9	=9	=9
1r	.	2c	-dian-	1r	.	2e	-dian-	1r	.	2g	-dian-
.	.	4F	-ne,	.	.	4f	-ne,	.	.	4a	-ne,
.	.	4c	An-	.	.	4e	An-	.	.	4g	An-
2r	.	2c	-dian-	2r	.	2e	-dian-	2r	.	2g	-dian-
4r	.	2F	-ne.	4r	.	2f	-ne.	4r	.	2f	-ne.
4F	A-	.	.	4A	A-	.	.	4cc	A-	.	.
=10	=10	=10	=10	=10	=10	=10	=10	=10	=10	=10	=10
4F	-spet-	2r	.	4c	-spet-	2r	.	4a	-spet-	2r	.
4F	-ta.	.	.	4c	-ta.	.	.	4a	-ta.	.	.
2r	.	4.A	Che	2r	.	4.A	Che	2r	.	4.cc	Che
.	.	8G	"A-	.	.	8B-y	"A-	.	.	8b-y	"A-
1r	.	4F	-spet-	1r	.	4c	-spet-	1r	.	4a	-spet-
.	.	4F	-ta,"	.	.	4c	-ta,"	.	.	4a	-ta,"
.	.	4.A	Che	.	.	4.A	Che	.	.	4.cc	Che
.	.	8G	"A-	.	.	8B-y	"A-	.	.	8b-	"A-
=11	=11	=11	=11	=11	=11	=11	=11	=11	=11	=11	=11
0r	.	2F	-spet-	0r	.	2c	-spet-	0r	.	2a	-spet-
.	.	2F	-ta"?	.	.	2c	-ta"?	.	.	2a	-ta"?
.	.	4c	Non	.	.	4e	Non	.	.	4cc	Non
.	.	4d	sai	.	.	4f	sai	.	.	4a	sai
.	.	[2G	ben	.	.	[2d	ben	.	.	4.b-y	ben
.	.	.	.	.	.	.	.	.	.	8b-y	che'l
=12	=12	=12	=12	=12	=12	=12	=12	=12	=12	=12	=12
0r	.	4G]	.	0r	.	4d]	.	0r	.	4.b-y	tem-
.	.	4G	che'l	.	.	4d	che'l	.	.	.	.
.	.	.	.	.	.	.	.	.	.	8a	-po
.	.	4c	tem-	.	.	4e-X	tem-	.	.	8gL	fug-
.	.	.	.	.	.	.	.	.	.	8a	.
.	.	4B-y	-po	.	.	4d	-po	.	.	8b-y	.
.	.	.	.	.	.	.	.	.	.	8ccJ	.
.	.	8GL	fug-	.	.	8B-yL	fug-	.	.	4dd	.
.	.	8A	.	.	.	8c	.	.	.	.	.
.	.	8B-y	.	.	.	8d	.	.	.	4dd	-ge,
.	.	8cJ	.	.	.	8eniJ	.	.	.	.	.
.	.	2d	.	.	.	2f	.	.	.	8dL	fug-
.	.	.	.	.	.	.	.	.	.	8e	.
.	.	.	.	.	.	.	.	.	.	8f	.
.	.	.	.	.	.	.	.	.	.	8gJ	.
=13	=13	=13	=13	=13	=13	=13	=13	=13	=13	=13	=13
2r	.	2d	-ge?	2r	.	2f	-ge?	2r	.	4a	.
.	.	.	.	.	.	.	.	.	.	4a	-ge?
1BB-y	Deh,	2r	.	1F	Deh,	2r	.	1dd	Deh,	2r	.
.	.	1r	.	.	.	1r	.	.	.	1r	.
4F	pen-	.	.	4A	pen-	.	.	4cc	pen-	.	.
4G	-siam	.	.	4G	-siam	.	.	4b-y	-siam	.	.
=14	=14	=14	=14	=14	=14	=14	=14	=14	=14	=14	=14
2.D	pria	0r	.	2.F	pria	0r	.	2.a	pria	0r	.
4E	se	.	.	4c	se	.	.	4g	se	.	.
4F	ciò	.	.	4c	ciò	.	.	4a	ciò	.	.
4F	dee	.	.	4c	dee	.	.	4a	dee	.	.
[2F	far-	.	.	[2c	far-	.	.	[2a	far-	.	.
=15	=15	=15	=15	=15	=15	=15	=15	=15	=15	=15	=15
4F]	.	0r	.	4c]	.	0r	.	4a]	.	1r	.
4F	-si, e	.	.	4A	-si, e	.	.	4a	-si, e	.	.
1E-X	co-	.	.	1G	co-	.	.	1b-y	co-	.	.
.	.	.	.	.	.	.	.	.	.	2r	.
2F	-me.	.	.	2c	-me.	.	.	2a	-me.	4r	.
.	.	.	.	.	.	.	.	.	.	4f	Per
=16	=16	=16	=16	=16	=16	=16	=16	=16	=16	=16	=16
0r	.	2F	Per	0r	.	2c	Per	0r	.	4.f	stra-
.	.	.	.	.	.	.	.	.	.	8g	-da
.	.	4.F	stra-	.	.	4.c	stra-	.	.	4.a	pen-
.	.	8G	-da	.	.	8g	-da	.	.	8b-y	-se-
.	.	4.A	pen-	.	.	4f	pen-	.	.	4.cc	-rem
.	.	.	.	.	.	4e	-se-	.	.	.	.
.	.	8B-y	-se-	.	.	.	.	.	.	8dd	ciò
.	.	4.c	-rem	.	.	4.e	-rem	.	.	4.cc	che
.	.	8d	ciò	.	.	8f	ciò	.	.	8b-y	vi
=17	=17	=17	=17	=17	=17	=17	=17	=17	=17	=17	=17
0r	.	4d	che	0r	.	4f	che	0r	.	2a	re-
.	.	4c	vi	.	.	4e	vi	.	.	.	.
.	.	2d	re-	.	.	2f#X	re-	.	.	4a	-sta;
.	.	.	.	.	.	.	.	.	.	4a	Ma
.	.	4G	-sta;	.	.	4g	-sta;	.	.	4b-y	nul-
.	.	4G	Ma	.	.	4d	Ma	.	.	4b-y	-la
.	.	4.d	nul-	.	.	4.fnXi	nul-	.	.	4.a	fa,
.	.	8c	-la	.	.	8e	-la	.	.	8cc	Ma
=18	=18	=18	=18	=18	=18	=18	=18	=18	=18	=18	=18
0r	.	4.B-y	fa	0r	.	4.f	fa	0r	.	4.dd	nul-
.	.	8A	chi	.	.	8c	chi	.	.	8cc	-la
.	.	4.G	trop-	.	.	4.d	trop-	.	.	4.b-y	fa
.	.	8F	-pe	.	.	8f	-pe	.	.	8a	chi
.	.	4c	co-	.	.	4e	co-	.	.	4g	trop-
.	.	4d	-se	.	.	4d	-se	.	.	4f	-pe
.	.	[2c	pen-	.	.	[2e	pen-	.	.	4g	co-
.	.	.	.	.	.	.	.	.	.	4a	-se
=19	=19	=19	=19	=19	=19	=19	=19	=19	=19	=19	=19
1r	.	2c]	.	1r	.	2e]	.	1r	.	2g	pen-
.	.	4F	-sa.	.	.	4f	-sa.	.	.	4f	-sa.
.	.	4F	An-	.	.	4f	An-	.	.	4a	An-
2r	.	2c	-dian-	2r	.	2e	-dian-	2r	.	2g	-dian-
4r	.	4F	-ne,	4r	.	4f	-ne,	4r	.	4a	-ne,
4FF	An-	4F	An-	4c	An-	4f	An-	4cc	An-	4a	An-
=20	=20	=20	=20	=20	=20	=20	=20	=20	=20	=20	=20
2BB-y	-dian-	2F	-dian-	2B-y	-dian-	2f	-dian-	2dd	-dian-	2b-y	-dian-
4FF	-ne,	4A	-ne,	4c	-ne,	4f	-ne,	4cc	-ne,	4a	-ne,
4FF	An-	4A	An-	4c	An-	4f	An-	4a	An-	4cc	An-
2BB-y	-dian-	2F	-dian-	2B-y	-dian-	2f	-dian-	2b-y	-dian-	2dd	-dian-
2FF	-ne.	4F	-ne,	4c	-ne,	4f	-ne,	4a	-ne,	2cc	-ne.
.	.	4F	An-	4c	An-	4f	An-	4a	An-	.	.
=21	=21	=21	=21	=21	=21	=21	=21	=21	=21	=21	=21
2r	.	2F	-dian-	2A	-dian-	2f	-dian-	2cc	-dian-	1r	.
4r	.	2F	-ne.	4c	-ne.	4f	-ne.	4a	-ne.	.	.
4F	A-	.	.	4c	A-	4f	A-	4a	A-	.	.
1C	-spet-	1r	.	2.c	-spet-	2.e	-spet-	2.g	-spet-	2r	.
.	.	.	.	.	.	.	.	.	.	4.cc	Che
.	.	.	.	4c	-ta.	4e	-ta.	4g	-ta.	.	.
.	.	.	.	.	.	.	.	.	.	8b-y	"A-
=22	=22	=22	=22	=22	=22	=22	=22	=22	=22	=22	=22
2FF	-ta.	4.A	Che	4.c	Che	4.f	Che	4.cc	Che	4a	-spet-
.	.	.	.	.	.	.	.	.	.	4a	-ta,"
.	.	8G	"A-	8G	"A-	8d	"A-	8b-y	"A-	.	.
4.A	Che	4F	-spet-	4c	-spet-	4f	-spet-	4a	-spet-	4.cc	Che
.	.	4F	-ta,"	4c	-ta,"	4f	-ta,"	4a	-ta,"	.	.
8G	"A-	.	.	.	.	.	.	.	.	8b-y	"A-
4F	-spet-	4.A	Che	4c	Che	4.f	Che	4.cc	Che	4a	-spet-
4F	-ta,"	.	.	4c	"A-	.	.	.	.	4a	-ta"?
.	.	8G	"A-	.	.	8d	"A-	8b-y	"A-	.	.
4.A	Che	4F	-spet-	2c	-spet-	4f	-spet-	4a	-spet-	4cc	non
.	.	4F	-ta"?	.	.	4f	-ta"?	4a	-ta"?	4cc	sai
8G	"A-	.	.	.	.	.	.	.	.	.	.
=23	=23	=23	=23	=23	=23	=23	=23	=23	=23	=23	=23
4F	-spet-	4c	non	2A	-ta"?	4f	non	1r	.	4cc	ben
4F	-ta"?	4c	sai	.	.	4f	sai	.	.	4cc	che'l
4F	non	4c	ben	4A	non	2f	ben,	.	.	4a	tem-
4F	sai	4c	che'l	4A	sai	.	.	.	.	4a	-po
2.FF	ben	4A	tem-	4c	ben	1r	.	4a	Non	8fL	fug-
.	.	.	.	.	.	.	.	.	.	8g	.
.	.	4A	-po	4c	che'l	.	.	4f	sai	8a	.
.	.	.	.	.	.	.	.	.	.	8b-yJ	.
.	.	8FL	fug-	4A	tem-	.	.	4a	ben	4cc	.
.	.	8G	.	.	.	.	.	.	.	.	.
4FF	che'l	8A	.	4F	-po	.	.	4cc	che'l	4cc	-ge,
.	.	8B-J	.	.	.	.	.	.	.	.	.
=24	=24	=24	=24	=24	=24	=24	=24	=24	=24	=24	=24
2.FF	tem-	4c	.	8FL	fug-	4f	non	4a	tem-	2r	.
.	.	.	.	8G	.	.	.	.	.	.	.
.	.	4c	-ge,	8A	.	4f	sai	4a	-po	.	.
.	.	.	.	8B-yJ	.	.	.	.	.	.	.
.	.	2r	.	4c	.	4f	ben	8fL	fug-	4a	non
.	.	.	.	.	.	.	.	8g	.	.	.
4FF	-po	.	.	4A	-ge,	4f	che'l	8a	.	4cc	sai
.	.	.	.	.	.	.	.	8b-yJ	.	.	.
8FFL	fug-	1r	.	8AL	fug-	4f	tem-	4cc	.	4a	ben
8GG	.	.	.	8B-y	.	.	.	.	.	.	.
8AA	.	.	.	8c	.	4e	-po	4cc	-ge?	4a	che'l
8BB-yJ	.	.	.	8dJ	.	.	.	.	.	.	.
4C	.	.	.	4e	.	8cL	fug-	2r	.	4g	tem-
.	.	.	.	.	.	8d	.	.	.	.	.
4C	-ge,	.	.	4c	-ge,	8e	.	.	.	4g	-po
.	.	.	.	.	.	8fJ	.	.	.	.	.
=25	=25	=25	=25	=25	=25	=25	=25	=25	=25	=25	=25
1r	.	2r	.	2e	fug-	4g	.	0r	.	8cL	fug-
.	.	.	.	.	.	.	.	.	.	8d	.
.	.	.	.	.	.	4c	-ge,	.	.	8e	.
.	.	.	.	.	.	.	.	.	.	8fJ	.
.	.	8GL	fug-	2d	-ge?	8B-yL	fug-	.	.	4g	.
.	.	8A	.	.	.	8c	.	.	.	.	.
.	.	8B-y	.	.	.	8d	.	.	.	4g	-ge,
.	.	8cJ	.	.	.	8eJ	.	.	.	.	.
8BB-yL	fug-	4d	.	1r	.	4f	.	.	.	8dL	fug-
8C	.	.	.	.	.	.	.	.	.	8e	.
8D	.	4d	-ge,	.	.	4d	-ge,	.	.	8f	.
8EJ	.	.	.	.	.	.	.	.	.	8gJ	.
4F	.	4A	fug-	.	.	4c	fug-	.	.	4a	.
4F	-ge?	4A	-ge?	.	.	4c	-ge?	.	.	4a	-ge?
=26	=26	=26	=26	=26	=26	=26	=26	=26	=26	=26	=26
2r	.	0r	.	2r	.	0r	.	2r	.	0r	.
1B-y	Deh,	.	.	1f	Deh,	.	.	1dd	Deh	.	.
4A	pen-	.	.	4c	pen-	.	.	4cc	pen-	.	.
4G	-siam	.	.	4d	-siam	.	.	4b-y	-siam	.	.
=27	=27	=27	=27	=27	=27	=27	=27	=27	=27	=27	=27
4.F	pria	1r	.	4d	pria	0r	.	4.a	pria	1r	.
.	.	.	.	4c	se	.	.	.	.	.	.
8F	se	.	.	.	.	.	.	8a	se	.	.
4.F	ciò	.	.	2.c	ciò	.	.	4a	ciò	.	.
.	.	.	.	.	.	.	.	4g	dee	.	.
8E	dee	.	.	.	.	.	.	.	.	.	.
[1D	far-	2r	.	.	.	.	.	[1f#X	far-	2.dd	Deh,
.	.	.	.	4B-y	dee	.	.	.	.	.	.
.	.	[2d	Deh,	[2A	far-	.	.	.	.	.	.
.	.	.	.	.	.	.	.	.	.	8cc	pen-
.	.	.	.	.	.	.	.	.	.	8b-y	-siam
=28	=28	=28	=28	=28	=28	=28	=28	=28	=28	=28	=28
1D]	.	4d]	.	2A]	.	2.d	Deh,	2f#]	.	4a	pria
.	.	8c	pen-	.	.	.	.	.	.	4a	se
.	.	8B-y	-siam	.	.	.	.	.	.	.	.
.	.	4A	pria	2A	-si,	.	.	2f#i	-si,	4.a	ciò
.	.	4A	se	.	.	8c	pen-	.	.	.	.
.	.	.	.	.	.	8B-y	-siam	.	.	8g	dee
1D	-si, e	4.A	ciò	1r	.	4A	pria	2r	.	2f#X	far-
.	.	.	.	.	.	4A	se	.	.	.	.
.	.	8G	dee	.	.	.	.	.	.	.	.
.	.	4F	far-	.	.	4f	ciò	2d	e	2dd	-si, e
.	.	4F	-si, e	.	.	4f	dee	.	.	.	.
=29	=29	=29	=29	=29	=29	=29	=29	=29	=29	=29	=29
1.E-X	co-	1.G	co-	1B-y	e	4e-X	far-	1.b-y	co-	1.g	co-
.	.	.	.	.	.	4e-i	-si, e	.	.	.	.
.	.	.	.	.	.	1e-i	co-	.	.	.	.
.	.	.	.	1B-y	co-	.	.	.	.	.	.
2BB-y	-me,	4D	-me.	.	.	2d	-me.	2b-y	-me.	4f	-me.
.	.	4D	Per	.	.	.	.	.	.	4f	Per
=30	=30	=30	=30	=30	=30	=30	=30	=30	=30	=30	=30
2F	e	4.D	stra-	2.A	-me.	0r	.	0r	.	4.f	stra-
.	.	8E	-da	.	.	.	.	.	.	8g	-da
1FF	co-	4.F	pen-	.	.	.	.	.	.	4.a	pen-
.	.	.	.	4A	Per	.	.	.	.	.	.
.	.	8G	-se-	.	.	.	.	.	.	8b-y	-se-
.	.	4.A	-rem	4.F	stra-	.	.	.	.	4.cc	-rem
.	.	8G	ciò	8G	-da	.	.	.	.	8b-y	ciò
2FF	-me.	4.F	che	4.A	pen-	.	.	.	.	4.cc	che
.	.	8D	vi	8B-y	-se-	.	.	.	.	8dd	vi
=31	=31	=31	=31	=31	=31	=31	=31	=31	=31	=31	=31
2F	Per	2A	re-	4.c	-rem	2f	Per	1r	.	2cc	re-
.	.	.	.	8A	ciò	.	.	.	.	.	.
4.BB-y	stra-	2D	-sta;	4B-y	che	4.d	stra-	.	.	2b-y	-sta;
.	.	.	.	4B-y	vi	.	.	.	.	.	.
8C	-da	.	.	.	.	8e	-da	.	.	.	.
4.D	pen-	1r	.	2A	re-	4.f	pen-	2a	Per	2r	.
8E	-se-	.	.	.	.	8g	-se-	.	.	.	.
4.F	-rem	.	.	2A	-sta;	4.a	-rem	4.f	stra-	2cc	Ma
8E	ciò	.	.	.	.	8g	ciò	8g	-da	.	.
=32	=32	=32	=32	=32	=32	=32	=32	=32	=32	=32	=32
4F	che	1r	.	2r	.	4f	che	4.a	pen-	4.cc	nul-
4G	vi	.	.	.	.	4d	vi	.	.	.	.
.	.	.	.	.	.	.	.	8b-y	-se-	8b-y	-la
2F	re-	.	.	2A	Ma	2f	re-	4.cc	-rem	4.a	fa
.	.	.	.	.	.	.	.	8b-y	ciò	8g	chi
2F	-sta;	2A	Ma	4.c	nul-	2f	-sta;	4.cc	che	4f	trop-
.	.	.	.	.	.	.	.	.	.	4f	-pe
.	.	.	.	8B-y	.	.	.	8dd	vi	.	.
2F	Ma	4c	nul-	4.A	-la,	2f	Ma	2a	re-	4cc	co-
.	.	4A	-la	.	.	.	.	.	.	4dd	-se
.	.	.	.	8B-y	Ma	.	.	.	.	.	.
=33	=33	=33	=33	=33	=33	=33	=33	=33	=33	=33	=33
4.A	nul-	2A	fa,	4.c	nul-	4.e	nul-	2a	-sta;	2cc	pen-
8G	-la	.	.	8B-y	-la	8e	-la	.	.	.	.
4.F	fa	2r	.	4.A	fa	4.f	fa	2r	.	2f	-sa,
8E	chi	.	.	8G	chi	8g	chi	.	.	.	.
4.D	trop-	1r	.	4.A	trop-	4.f	trop-	1r	.	1r	.
8C	-pe	.	.	8c	-pe	8e	-pe	.	.	.	.
4.G	co-	.	.	4.B-y	co-	4d	co-	.	.	.	.
.	.	.	.	.	.	4c	-se	.	.	.	.
8A	-se	.	.	8A	-se	.	.	.	.	.	.
=34	=34	=34	=34	=34	=34	=34	=34	=34	=34	=34	=34
2G	pen-	2r	.	2BnX	pen-	2d	pen-	2dd	Ma	0r	.
2C	-sa,	2G	Ma	2c	-sa,	2e	-sa,	4.cc	nul-	.	.
.	.	.	.	.	.	.	.	8b-y	-la	.	.
2F	Ma	4A	nul-	2r	.	2f	Ma	4.a	fa	.	.
.	.	4A	-la	.	.	.	.	.	.	.	.
.	.	.	.	.	.	.	.	8g	chi	.	.
4BB-y	nul-	4B-y	fa,	2F	Ma	4d	nul-	4f	trop-	.	.
4BB-y	-la	4B-y	Ma	.	.	4d	-la	4g	-pe	.	.
=35	=35	=35	=35	=35	=35	=35	=35	=35	=35	=35	=35
2FF	fa	4.c	nul-	4F	nul-	1f	fa	4.cc	co-	2a	Ma
.	.	.	.	4F	-la	.	.	.	.	.	.
.	.	8B-y	-la	.	.	.	.	8dd	-se	.	.
2F	chi	4.A	fa	4F	fa,	.	.	2a	pen-	4.cc	nul-
.	.	.	.	4F	Ma	.	.	.	.	.	.
.	.	8G	chi	.	.	.	.	.	.	8b-y	-la
2.FF	trop-	4F	trop-	4.c	nul-	1r	.	2.f	-sa,	4.a	fa
.	.	4F	-pe	.	.	.	.	.	.	.	.
.	.	.	.	8B-y	-la	.	.	.	.	8g	chi
.	.	4c	co-	4.A	fa	.	.	.	.	4f	trop-
4FF	-pe	4c	-se	.	.	.	.	4a	chi	4f	-pe
.	.	.	.	8G	chi	.	.	.	.	.	.
=36	=36	=36	=36	=36	=36	=36	=36	=36	=36	=36	=36
2FF	co-	0c	pen-	4F	trop-	2f	chi	4a	trop-	2.cc	co-
.	.	.	.	4F	-pe	.	.	4a	-pe	.	.
2FF	-se	.	.	4c	co-	4f	trop-	4a	co-	.	.
.	.	.	.	4F	-se	4f	-pe	4a	-se	4dd	-se
1C	pen-	.	.	1G	pen-	4.e	co-	1g	pen-	1cc	pen-
.	.	.	.	.	.	8d	-se	.	.	.	.
.	.	.	.	.	.	2e	pen-	.	.	.	.
=37	=37	=37	=37	=37	=37	=37	=37	=37	=37	=37	=37
00FFl	-sa.	00cl	-sa.	00Fl	-sa.	00fl	-sa.	00al	-sa.	00ccl	-sa.
==	==	==	==	==	==	==	==	==	==	==	==
*-	*-	*-	*-	*-	*-	*-	*-	*-	*-	*-	*-
!!!system-decoration: [*]
!!!RDF**kern: i = editorial accidental
!!!RDF**kern: l = terminal long
!!!ENC: Emiliano Ricciardi
!!!END: 2018/12/31
!!!EED: Coluzzi, Seth
!!!EEV: 2019/01/21
!!!YEC: Copyright 2018 Emiliano Ricciardi, All Rights Reserved
!!!ONB: Translated from MusicXML on 2019/01/21
!!@@BEGIN:	VERSEDATA
!!@CATALOGNUM:	Tam2031133
!!@LAST_MODIFIED: 2020/07/12
!!@ACT:         II
!!@SCENE:       3
!!@VERSE:       1133
!!@TITLE:       Tu taci: tu sei vinto. Ora confessa
!!@MANUSRC:	A-Am, A-Au, A-Br, A-CM, A-F, A-Ub
!!@PRINTSRC:	A-1580D, A-1580M, A-1581B, A-1581B<sub>bis</sub>, A-1581M, A-1581M<sub>bis</sub>, A-1581O, A-1581V, A-1582B, A-1583M, A-1583V, A-1584A, A-1585C, A-1585V, A-1585V<sub>bis</sub>, A-1588B, A-1589M, A-1589V, A-1590Mb, A-1590Mv, A-1591M, A-1591W, A-1592B, A-1596B, A-1596M, A-1599Bf, A-1599Bp, A-1600R, A-1601Bf, A-1601Bp, A-1602B, A-1603Bf, A-1603Bv, A-1603Z, A-1605R, A-1606Z, A-1608D, A-1608DP, A-1609Bf, A-1609Bv, A-1609Z, A-1611D, A-1614GT, A-1617D, A-1618B, A-1619D, A-1619I, A-1620V, A-1622D, A-1623A, A-1624M, A-1624S, A-1624T, A-1625U, A-1628U, A-1632D, A-1634R
!!@@BEGIN:	VERSES
!!@ABOUTIT:	
!!@ABOUTEN:	
!!@EDITOR:	Solerti, Angelo
!!@EDITION_TITLE: Opere minori in versi di Torquato Tasso. Edizione critica sugli autografi e sulle antiche stampe.
!!@EDITION_LOC:	Bologna
!!@EDITION_PUB:	Zanichelli
!!@EDITION_DATE:  1895
!!@EDITION_VOL:	3
!!@EDITION_PAGE:
!!@TRANSLATOR:	Emiliano Ricciardi and Amyrose McCue Gill
!!@VERSE:	
!!	TIRSI: Tu taci? tu sei vinto. Ora confessa
!!	Questa perdita tua, che fia cagione
!!	Di vittoria maggiore. Andianne.
!!	AMINTA: Aspetta.
!!	TIRSI: Che Aspetta? non sai che 'l tempo fugge?
!!	AMINTA: Deh, pensiam pria se ciò dè farsi, e come.
!!	TIRSI: Per strada pensarem ciò che vi resta:
!!	Ma nulla fa chi troppe cose pensa.
!!@TVERSE:
!!	THYRSIS: You are silent? You are vanquished. Now admit
!!	This, your loss, which may be the cause
!!	Of a greater victory. Let’s go.
!!	AMINTA: Wait.
!!	THYRSIS: What “Wait”? Don’t you know that time is flying?
!!	AMINTA: Oh, first let us think about what we must do, and how.
!!	THYRSIS: On the way we’ll think of what remains [to consider]:
!!	For he who thinks of too many things does nothing.
!!@@END:		VERSES
!!@NEW_CRIT_ED:   Torquato Tasso, <i>Aminta. "Princeps."</i>, ed. Matteo Navone, vol. 9 of Commissione Nazionale per l'Edizione delle opere del Tasso. Studi e Testi (Alessandria: Edizioni dell'Orso, 2014).
!!@ATTRIBUTION_ABOUT:	
!!@DATING:	1573
!!@DEDICATEE:	
!!@COMMENTARY:
!!@@END:		VERSEDATA
!!@@BEGIN: SETTING
!!@CATALOGNUM:	Tam2031133a
!!@ACT:		II
!!@SCENE:		3
!!@VERSE:		1133
!!@TITLE:		Tu taci: tu sei vinto. Ora confessa
!!@COMPOSER:	Balsamino, Simone
!!@PRINCEPSTITLE:	Novellette a sei voci
!!@PRINCEPSLOC:	Venice
!!@NORMLOC:	Venice
!!@NORMPUB:	Amadino
!!@NORMPUBSHORT:	Amadino
!!@PRINCEPSPUB:	Amadino
!!@PRINCEPSYEAR:	1594
!!@PRINCEPSRISM:	B 785
!!@OVOICES:	6
!!@EXTANTVOICES:	6
!!@OMENSURATION:	C
!!@OCLEFS:	C1,C1,C3,C4,C4,F4
!!@OTIME:		
!!@OKEYSIG:	b-
!!@FINAL:		F
!!@TIMPEDITOR:	Coluzzi, Seth
!!@PARTS:		1 of 1
!!@REPRINTS:	
!!@@END: SETTING
